X:1075
T: Ballos
O: Greece
M: 4/4
L: 1/8
Q: 1/4=180
K: F
z2 A2 B2 c2|:d2 zd d2 d2|dcde dcB2|c2 zc c2 c2|cBcd cBA2|B2 zB B2 B2|
BABc BAG2|e2 d2 c2 B2 | A3 A ABcd|c4 Bc B2|[1A4 B2 c2:|[2 A6 z2|
 F3 F F2 G2|A3 A AG F2|z G3 E2 C2|F8| z G3 E2 C2| F8|
B2 zB B2 B2|BABc BAG2|A2 zA A2 A2| AGAB AGF2|G2 zG G2 G2| GFGA GFE2|\
 z B3 A2 G2| F3G AB c2|A4 G2 G2| F8|
